build/Karasa-Jaga/scalable/actions/view-treemap-symbolic.svg

<svg height="16" width="15.982" xmlns="http://www.w3.org/2000/svg"><g fill="#bebebe" transform="translate(-181 -787)"><path d="m1 1v14h9v-14zm1 1h7v8h-1-5-1zm0 9h1 5 1v3h-7z" transform="translate(181 787)"/><path d="m192 792h4v10h-4z"/><g transform="scale(-1 1)"><path d="m-189 792h5v4h-5z" opacity=".35"/><path d="m-189 790h5v1h-5z" opacity=".35"/><path d="m-196 788h4v3h-4z" opacity=".35"/></g></g></svg>

<?xml version="1.0" encoding="UTF-8" standalone="no"?>
<svg
   xmlns:dc="http://purl.org/dc/elements/1.1/"
   xmlns:cc="http://creativecommons.org/ns#"
   xmlns:rdf="http://www.w3.org/1999/02/22-rdf-syntax-ns#"
   xmlns:svg="http://www.w3.org/2000/svg"
   xmlns="http://www.w3.org/2000/svg"
   xmlns:sodipodi="http://sodipodi.sourceforge.net/DTD/sodipodi-0.dtd"
   xmlns:inkscape="http://www.inkscape.org/namespaces/inkscape"
   height="16"
   width="15.982"
   version="1.1"
   id="svg16"
   sodipodi:docname="view-treemap-symbolic.svg"
   inkscape:version="0.92.4 (unknown)">
  <metadata
     id="metadata22">
    <rdf:RDF>
      <cc:Work
         rdf:about="">
        <dc:format>image/svg+xml</dc:format>
        <dc:type
           rdf:resource="http://purl.org/dc/dcmitype/StillImage" />
        <dc:title></dc:title>
      </cc:Work>
    </rdf:RDF>
  </metadata>
  <defs
     id="defs20" />
  <sodipodi:namedview
     pagecolor="#ffffff"
     bordercolor="#666666"
     borderopacity="1"
     objecttolerance="10"
     gridtolerance="10"
     guidetolerance="10"
     inkscape:pageopacity="0"
     inkscape:pageshadow="2"
     inkscape:window-width="1366"
     inkscape:window-height="706"
     id="namedview18"
     showgrid="true"
     inkscape:zoom="20.85965"
     inkscape:cx="4.3162693"
     inkscape:cy="8.390914"
     inkscape:window-x="0"
     inkscape:window-y="0"
     inkscape:window-maximized="1"
     inkscape:current-layer="svg16">
    <inkscape:grid
       type="xygrid"
       id="grid829" />
  </sodipodi:namedview>
  <g
     fill="#bebebe"
     transform="translate(-181 -787)"
     id="g14">
    <path
       d="M 1 1 L 1 15 L 10 15 L 10 1 L 1 1 z M 2 2 L 9 2 L 9 10 L 8 10 L 3 10 L 2 10 L 2 2 z M 2 11 L 3 11 L 8 11 L 9 11 L 9 14 L 2 14 L 2 11 z "
       transform="translate(181,787)"
       id="path2" />
    <path
       d="m192 792h4v10h-4z"
       id="path4" />
    <g
       transform="scale(-1 1)"
       id="g12">
      <path
         d="m -189,792 h 5 v 4 h -5 z"
         id="path6"
         inkscape:connector-curvature="0"
         style="opacity:0.35"
         sodipodi:nodetypes="ccccc" />
      <path
         d="m -189,790 h 5 v 1 h -5 z"
         id="path8"
         inkscape:connector-curvature="0"
         style="opacity:0.35"
         sodipodi:nodetypes="ccccc" />
      <path
         d="m-196 788h4v3h-4z"
         opacity=".35"
         id="path10" />
    </g>
  </g>
</svg>
